X:1
T:Trava Trava  [A]
T:Trava Trava  [A]
T:Greece
C:Greece
L:1/8
M:4/4
K:A
V:1 treble 
V:1
"A" [^B^d][ce] [ce][ce] [Ac]2 [EA]2 | [^B^d][ce] [ce][ce] [Ac]2 [EA]2 | %2
 [^B^d][ce] [ce][=B=d]"E7" [Ac][Bd] [Ac][GB] |"A" [EA]2 [EA][GB] [Ac][Bd] [ce]2 | %4
 [^B^d][ce] [ce][ce] [Ac]2 [EA]2 | [^B^d][ce] [ce][ce] [Ac]2 [EA]2 | %6
 [ce][df] [ce][Bd]"E7" [Bd][ce] [Ac][GB] |"A" [AA]2"E7" [EE]2"A" [AA]2 z2 |] %8
"A" [ce][^B^d] [ce][=df] [e=g][df] [ce][B^d] | [ce][^B^d] [ce][=df] [e=g][df] [ce][B^d] | %10
 [ce][^B^d] [ce][=df] [e=g][df] [ce]2 |"G#" [^B^d]4"A" [ce]4 | %12
"A" [ce][^B^d] [ce][=df] [e=g][df] [ce][B^d] | [ce][^B^d] [ce][=df] [e=g][df]"^->Coda" [ce][eg] | %14
"E7" [e=g][df] [ce][Ac] [Bd][Ac] [GB][Ec] |"A" [AA]2"E7" [EE]2"A" [AA]2 z2 |] %16
"A" [G^B]2 [Ac]2 [GB]2 [Ac]2 | [^B^d]2 [ce]6 | [^df]2 [e=g]2 [=df]2 [ce]2 | [Bd]2 [Ac]6 | %20
 [^df]2 [e=g]2 [=df]2 [ce]2 | [^B^d]2 [ce]6 | [fa]2 [e=g]2 [df]2 [ce]2 | [Bd]2 [Ac]6 || %24
 [^df]2 [e=g]2 [=df]2 [ce]2 | [^B^d][=df] [ce]3 [ce][df][e=g] | [fa]2 [e=g]2 [df]2 [ce]2 | %27
 [Bd]2 [Ac]3 [Bd][ce][df] |"A7" [e=g]8- | [eg]6 [fa][e^g] |"D" [df]8- | [df]8 |"A" [ce]8- | %33
 [ce]8 |]"^Coda" x8 |]"E7" [ee]2 [ee][ee] [^df]2 [=dg]2 |"A" [ca] z"E7" [ee] z"A" [Aa] z z2 |] %37

